images/calendar.svg

<svg viewBox="0 0 24 24" fill="none" xmlns="http://www.w3.org/2000/svg"><path fill-rule="evenodd" clip-rule="evenodd" d="M20 3h-1V1h-2v2H7V1H5v2H4c-1.1 0-2 .9-2 2v16c0 1.1.9 2 2 2h16c1.1 0 2-.9 2-2V5c0-1.1-.9-2-2-2zm0 18H4V10h16v11zM4 8h16V5H4v3z" fill="#333"/></svg>

<svg viewBox="0 0 24 24" fill="none" xmlns="http://www.w3.org/2000/svg">
<path id="icon/action/calendar_today_24px" fill-rule="evenodd" clip-rule="evenodd" d="M20 3H19V1H17V3H7V1H5V3H4C2.9 3 2 3.9 2 5V21C2 22.1 2.9 23 4 23H20C21.1 23 22 22.1 22 21V5C22 3.9 21.1 3 20 3ZM20 21H4V10H20V21ZM4 8H20V5H4V8Z" fill="#333333"/>
</svg>
